img/loomis/mod-sh.svg

<?xml version="1.0" encoding="UTF-8" standalone="no"?>
<!-- Created with Inkscape (http://www.inkscape.org/) -->

<svg
   xmlns:dc="http://purl.org/dc/elements/1.1/"
   xmlns:cc="http://creativecommons.org/ns#"
   xmlns:rdf="http://www.w3.org/1999/02/22-rdf-syntax-ns#"
   xmlns:svg="http://www.w3.org/2000/svg"
   xmlns="http://www.w3.org/2000/svg"
   xmlns:sodipodi="http://sodipodi.sourceforge.net/DTD/sodipodi-0.dtd"
   xmlns:inkscape="http://www.inkscape.org/namespaces/inkscape"
   width="32"
   height="32"
   id="svg2"
   version="1.1"
   inkscape:version="0.48.5 r10040"
   sodipodi:docname="arrows.svg">
  <defs
     id="defs4" />
  <sodipodi:namedview
     id="base"
     pagecolor="#ffffff"
     bordercolor="#666666"
     borderopacity="1.0"
     inkscape:pageopacity="0.0"
     inkscape:pageshadow="2"
     inkscape:zoom="11.2"
     inkscape:cx="23.865324"
     inkscape:cy="21.97575"
     inkscape:document-units="px"
     inkscape:current-layer="layer1"
     showgrid="true"
     showguides="false"
     inkscape:snap-global="true"
     objecttolerance="50"
     gridtolerance="10000"
     inkscape:snap-to-guides="false"
     inkscape:window-width="1131"
     inkscape:window-height="896"
     inkscape:window-x="104"
     inkscape:window-y="104"
     inkscape:window-maximized="0">
    <inkscape:grid
       type="xygrid"
       id="grid2985"
       empspacing="4"
       dotted="true"
       visible="true"
       enabled="true"
       snapvisiblegridlinesonly="true" />
  </sodipodi:namedview>
  <metadata
     id="metadata7">
    <rdf:RDF>
      <cc:Work
         rdf:about="">
        <dc:format>image/svg+xml</dc:format>
        <dc:type
           rdf:resource="http://purl.org/dc/dcmitype/StillImage" />
        <dc:title></dc:title>
      </cc:Work>
    </rdf:RDF>
  </metadata>
  <g
     inkscape:label="Layer 1"
     inkscape:groupmode="layer"
     id="layer1"
     transform="translate(0,-1020.3622)">
    <path
       style="color:#000000;fill:#000000;stroke:none;overflow:visible"
       d="M 15.34375 1 L 10.84375 7.84375 L 11.59375 8.59375 L 14 8 L 14 11 L 15 12 L 17 12 L 18 11 L 18 8 L 20.40625 8.59375 L 21.15625 7.84375 L 16.65625 1 L 15.34375 1 z M 7.84375 10.84375 L 1 15.34375 L 1 16.65625 L 7.84375 21.15625 L 8.59375 20.40625 L 8 18 L 11 18 L 12 17 L 12 15 L 11 14 L 8 14 L 8.59375 11.59375 L 7.84375 10.84375 z M 24.15625 10.84375 L 23.40625 11.59375 L 24 14 L 21 14 L 20 15 L 20 17 L 21 18 L 24 18 L 23.40625 20.40625 L 24.15625 21.15625 L 31 16.65625 L 31 15.34375 L 24.15625 10.84375 z M 15 20 L 14 21 L 14 24 L 11.59375 23.40625 L 10.84375 24.15625 L 15.34375 31 L 16.65625 31 L 21.15625 24.15625 L 20.40625 23.40625 L 18 24 L 18 21 L 17 20 L 15 20 z "
       transform="translate(0,1020.3622)"
       id="rect2993" />
  </g>
</svg>

<svg xmlns="http://www.w3.org/2000/svg" width="32" height="32">
    <path style="color:#000;fill:#000;stroke:none;overflow:visible" d="m15.344 1-4.5 6.844.75.75L14 8v3l1 1h2l1-1V8l2.406.594.75-.75L16.656 1h-1.312zm-7.5 9.844L1 15.344v1.312l6.844 4.5.75-.75L8 18h3l1-1v-2l-1-1H8l.594-2.406-.75-.75zm16.312 0-.75.75L24 14h-3l-1 1v2l1 1h3l-.594 2.406.75.75 6.844-4.5v-1.312l-6.844-4.5zM15 20l-1 1v3l-2.406-.594-.75.75 4.5 6.844h1.312l4.5-6.844-.75-.75L18 24v-3l-1-1h-2z"/>
</svg>
